X: 1
T: June Apple
C:Traditional
B: canberra pickers and fiddlers
B: songs
B: traditional songs
B: tunes
M:4/4
R: reel
Q: 1/4=146
K:Amixolydian
V:1 
eg| "A"ageg ageg| aged ""cdef| "A"gfef gfef| "D"gagf e2eg|
"A"ageg ageg| aged cBAA| "E"G2GA BAG2| "A"A3B A2 :|
|:\
ed| "A"c2cB A2AB| c2cd e2A2| "G"G2A2 Bc3| d3e d4|
"A"cdcB A2AB| cBcd e2A2| "E"GFGA BAG2|1 "A"A3B A2 :|2 "A"A6 |]
W: Wish I was a june apple
W: Hanging on a tree
W: Every time my love went by
W: She'd take a bite of me
W: Take a bite of me my love
W: Take a bite of me
W: Every time my love went by
W: She'd take a bite of me.
W: 
W: Made this banjo from a gourd.
W: It's strings are made of twine.
W: Only tune it will play
W: Is trouble on my mind.
W: Trouble on my mind love
W: Trouble on my mind.
W: Only tune it will play
W: Is trouble on my mind.
W: 
W: Train out on the island love,
W: I heard that whistle blow.
W: Tell my friends I'm sorry
W: I'm sick and I must go.
W: Sick and I must go my love,
W: Sick and I must go.
W: Tell my friends I'm sorry
W: I'm sick and I must go.
% abcbook-tune_id 63ae8f1c06b44a1c00a30794
% abcbook-tune_composer_id 
% abcbook-link-0 https://www.youtube.com/watch?v=JPNUBR1sTfA
% abcbook-boost 18
% abcbook-difficulty 0
% abcbook-tags canberra pickers and fiddlers,max campbell,old time tunes,steve ryan,© free
% abcbook-tablature 
% abcbook-transpose 
% abcbook-tuning GDAE
% abcbook-lastupdated 1739274388318
% abcbook-src-url https://tunebook.net/scrape/traditional%20songs.abc
% abcbook-soundfonts 
% abcbook-repeats 1
%%text 9/1/98

